X:1
T:Title
%%score ( 1 2 3 ) 4 5
L:1/8
M:4/4
K:G
V:1 treble nm="Choir Aahs, Staff"
V:2 treble 
V:3 treble 
V:4 bass nm="Choir Aahs, Staff-1"
V:5 treble nm="Voice Oohs, Staff-2"
V:1
 [DB]4 [DA]2 [DG]2 | [DF]2 [B,G]2 [CE]2 [A,D]2 | [B,D]4 D2 G2 | [B,G]2 [EG]2 [DA]2 [DG]2 | [EG]8 | %5
w: By~Ravenscroft's~Psalter,~1621 * *|||||
 [EG]4 [DG]2 [CE]2 | [B,E]2 [EA]2 [DA]2 [B,^G]2 | z4 G4 | G4 z4 | [DB]8 |] %10
w: |||||
V:2
 x8 | x8 | z4 B,4 | x8 | x8 | x8 | x8 | [^CA]4 z2 =C2 | C2 z B [EA]2 [DA]2 | x8 |] %10
V:3
 x8 | x8 | x8 | x8 | x8 | x8 | x8 | x8 | z2 D2 z4 | x8 |] %10
V:4
 G,4 [F,A,]2 [G,B,]2 | [D,A,]2 [E,G,]2 [C,G,]2 [D,F,]2 | [G,,G,]4 [G,,G,]4 | %3
 [G,D]2 [E,C]2 [=F,C]2 [G,B,]2 | [C,C]8 | [C,C]4 [G,,B,]2 [A,,A,]2 | %6
 [E,^G,]2 [C,A,]2 [D,B,]2 [E,B,]2 | [A,,A,]4 [C,G,]4 | [C,E,]2 [B,,G,]2 [C,G,]2 [D,F,]2 | %9
 [G,,G,]8 |] %10
V:5
 G4 A2 B2 | A2 G2 G2 F2 | G4 G4 | d2 c2 c2 B2 | c8 | c4 B2 A2 | ^G2 A2 B2 B2 | A4 G4 | %8
 E2 G2 G2 F2 | G8 |] %10

